; generated by PrusaSlicer 2.6.0+win64 on 2024-01-06 at 14:59:12 UTC

; 

; external perimeters extrusion width = 0.42mm
; perimeters extrusion width = 0.44mm
; infill extrusion width = 0.44mm
; solid infill extrusion width = 0.44mm
; top infill extrusion width = 0.40mm
; first layer extrusion width = 0.42mm

M73 P0 R64
;TYPE:Custom
G90 ; use absolute coordinates
M83 ; extruder relative mode
M104 S150 ; set temporary nozzle temp to prevent oozing during homing
M140 S60 ; set final bed temp
G4 S30 ; allow partial nozzle warmup
G28 ; home all axis
G1 Z50.25 F240
G1 X2.0 Y10 F3000
M104 S210 ; set final nozzle temp
M190 S60 ; wait for bed temp to stabilize
M109 S210 ; wait for nozzle temp to stabilize
G1 Z0.47333333333333333 F240
G92 E0
G1 X2.0 Y140 E10 F1500 ; prime the nozzle
G1 X2.3 Y140 F5000
G92 E0
G1 X2.3 Y10 E10 F1200 ; prime the nozzle
G92 E0

BED_MESH_CALIBRATE AREA_START=92.5587,85.0573 AREA_END=137.441,107.943
G21 ; set units to millimeters
G90 ; use absolute coordinates
M83 ; use relative distances for extrusion
; Filament gcode
M107
;LAYER_CHANGE
;Z:0.2
;HEIGHT:0.2
;BEFORE_LAYER_CHANGE
G92 E0
;0.2


G1 E-5 F3600
G1 Z0.3642857142857143 F9000
;AFTER_LAYER_CHANGE
;0.2
G1 X95.509 Y89.114
G1 E5 F2400
M204 S500
;TYPE:Skirt/Brim
;WIDTH:0.42
G1 F1200
G1 X96.413 Y88.188 E.04058
G1 X97.16 Y87.563 E.03054
G1 X98.931 Y86.452 E.06555
G1 X100.118 Y85.937 E.04057
G1 X101.199 Y85.6 E.0355
G1 X102.148 Y85.4 E.03041
G1 X103.431 Y85.261 E.04046
G1 X126.082 Y85.247 E.71021
M73 P1 R64
G1 X127.873 Y85.403 E.05637
G1 X129.772 Y85.897 E.06152
G1 X131.555 Y86.713 E.06148
G1 X132.915 Y87.622 E.05129
G1 X134.352 Y88.958 E.06152
G1 X135.535 Y90.523 E.06151
G1 X136.365 Y92.118 E.05638
G1 X136.969 Y93.984 E.0615
G1 X137.217 Y95.601 E.05129
G1 X137.204 Y97.553 E.0612
G1 X136.853 Y99.473 E.0612
G1 X136.173 Y101.311 E.06145
G1 X135.271 Y102.879 E.05672
G1 X134.023 Y104.391 E.06147
G1 X132.532 Y105.664 E.06147
G1 X131.132 Y106.515 E.05137
G1 X129.932 Y107.044 E.04112
G1 X128.838 Y107.39 E.03598
G1 X127.556 Y107.645 E.04098
G1 X126.414 Y107.746 E.03595
G1 X104 Y107.754 E.70278
G1 X102.471 Y107.649 E.04805
G1 X101.204 Y107.401 E.04048
G1 X99.824 Y106.95 E.04552
G1 X98.513 Y106.326 E.04552
G1 X97.294 Y105.537 E.04553
G1 X96.422 Y104.82 E.0354
G1 X95.414 Y103.775 E.04552
G1 X94.637 Y102.744 E.04048
G1 X93.911 Y101.486 E.04554
G1 X93.162 Y99.529 E.0657
G1 X92.886 Y98.268 E.04047
G1 X92.775 Y97.307 E.03033
G1 X92.751 Y96.178 E.03541
G1 X92.86 Y94.901 E.04019
G1 X93.349 Y92.865 E.06565
G1 X93.712 Y91.939 E.03119
G1 X94.289 Y90.812 E.0397
G1 X95.474 Y89.163 E.06367
G1 X95.779 Y89.381 F9000
G1 F1200
G1 X96.671 Y88.463 E.04013
G1 X97.394 Y87.859 E.02954
G1 X99.096 Y86.792 E.06298
G1 X100.253 Y86.289 E.03956
G1 X101.288 Y85.967 E.03399
G1 X102.521 Y85.724 E.0394
G1 X103.599 Y85.631 E.03393
G1 X126.073 Y85.624 E.70466
G1 X127.816 Y85.776 E.05486
M73 P1 R63
G1 X129.65 Y86.254 E.05942
G1 X131.374 Y87.044 E.05946
G1 X132.679 Y87.916 E.04921
G1 X133.969 Y89.098 E.05486
G1 X135.133 Y90.594 E.05943
G1 X136.02 Y92.27 E.05946
G1 X136.602 Y94.074 E.05943
G1 X136.841 Y95.625 E.0492
G1 X136.829 Y97.512 E.05917
G1 X136.491 Y99.368 E.05915
G1 X135.834 Y101.144 E.05937
G1 X134.957 Y102.67 E.05519
G1 X133.75 Y104.131 E.05942
G1 X132.308 Y105.36 E.05941
G1 X130.668 Y106.323 E.05963
G1 X128.748 Y107.024 E.06409
G1 X127.498 Y107.273 E.03996
G1 X126.406 Y107.369 E.03437
G1 X104 Y107.377 E.70252
G1 X102.527 Y107.276 E.04629
G1 X101.293 Y107.034 E.03943
G1 X99.959 Y106.598 E.044
G1 X98.692 Y105.994 E.04401
G1 X97.514 Y105.231 E.04401
G1 X96.68 Y104.545 E.03386
G1 X95.705 Y103.535 E.04402
G1 X94.948 Y102.53 E.03945
G1 X94.247 Y101.314 E.04401
G1 X93.526 Y99.433 E.06316
G1 X93.257 Y98.204 E.03945
G1 X93.151 Y97.274 E.02935
G1 X93.127 Y96.194 E.03387
G1 X93.234 Y94.948 E.03921
G1 X93.704 Y92.992 E.06307
G1 X94.055 Y92.096 E.03017
G1 X94.618 Y90.998 E.03869
G1 X95.744 Y89.43 E.06053
; printing object holder.stl id:0 copy 0
G1 E-3.5 F3600
;WIPE_START
G1 F7200
G1 X96.671 Y88.463 E-.63629
G1 X97.394 Y87.859 E-.4475
G1 X98.136 Y87.394 E-.41621
;WIPE_END
G1 X98.95 Y92.513 F9000
G1 E5 F2400
;TYPE:Perimeter
;WIDTH:0.419999
G1 F1200
G1 X99.305 Y92.099 E.0171
G1 X99.701 Y91.712 E.01736
G1 X100.129 Y91.359 E.0174
G1 X100.583 Y91.047 E.01727
G1 X101.066 Y90.773 E.01741
G1 X101.569 Y90.542 E.01735
G1 X102.09 Y90.355 E.01736
G1 X102.626 Y90.213 E.01739
G1 X103.171 Y90.119 E.01734
G1 X103.727 Y90.071 E.0175
G1 X125.98 Y90.064 E.69773
G1 X126.561 Y90.09 E.01824
G1 X127.117 Y90.163 E.01758
G1 X127.665 Y90.284 E.0176
G1 X128.201 Y90.453 E.01762
G1 X128.719 Y90.668 E.01758
G1 X129.217 Y90.927 E.0176
G1 X129.691 Y91.229 E.01762
G1 X130.128 Y91.564 E.01726
G1 X130.751 Y92.161 E.02705
G1 X131.105 Y92.583 E.01727
G1 X131.421 Y93.034 E.01727
G1 X131.772 Y93.674 E.02289
G1 X131.969 Y94.137 E.01578
G1 X132.166 Y94.673 E.01791
G1 X132.296 Y95.187 E.01662
G1 X132.39 Y95.776 E.0187
G1 X132.428 Y96.301 E.0165
G1 X132.428 Y96.784 E.01514
G1 X132.38 Y97.33 E.01719
G1 X132.212 Y98.175 E.02701
G1 X132.05 Y98.691 E.01696
G1 X131.743 Y99.387 E.02385
G1 X131.468 Y99.886 E.01786
G1 X131.152 Y100.35 E.0176
G1 X130.825 Y100.751 E.01622
G1 X130.047 Y101.498 E.03382
G1 X129.622 Y101.815 E.01662
G1 X129.067 Y102.146 E.02026
G1 X128.357 Y102.483 E.02464
G1 X127.858 Y102.658 E.01658
G1 X127.312 Y102.796 E.01766
G1 X126.724 Y102.89 E.01867
G1 X125.988 Y102.936 E.02312
G1 X104.022 Y102.936 E.68873
G1 X103.447 Y102.911 E.01805
G1 X102.897 Y102.84 E.01739
G1 X102.357 Y102.722 E.01733
G1 X101.826 Y102.557 E.01743
G1 X101.324 Y102.352 E.017
G1 X100.576 Y101.948 E.02666
G1 X100.128 Y101.64 E.01705
G1 X99.701 Y101.288 E.01735
G1 X99.305 Y100.901 E.01736
G1 X98.943 Y100.48 E.01741
G1 X98.621 Y100.032 E.0173
G1 X98.337 Y99.556 E.01738
G1 X98.095 Y99.057 E.01739
G1 X97.897 Y98.541 E.01733
G1 X97.744 Y98.009 E.01736
G1 X97.637 Y97.464 E.01741
G1 X97.578 Y96.915 E.01731
G1 X97.566 Y96.362 E.01734
G1 X97.602 Y95.809 E.01738
G1 X97.685 Y95.262 E.01735
G1 X97.815 Y94.724 E.01735
G1 X97.991 Y94.198 E.01739
G1 X98.211 Y93.69 E.01736
G1 X98.47 Y93.21 E.0171
G1 X98.916 Y92.562 E.02466
G1 X98.65 Y92.282 F9000
G1 F1200
G1 X99.03 Y91.841 E.01825
G1 X99.449 Y91.431 E.01838
G1 X99.902 Y91.058 E.0184
G1 X100.383 Y90.727 E.01831
G1 X100.894 Y90.437 E.01842
G1 X101.426 Y90.192 E.01836
G1 X101.978 Y89.994 E.01839
G1 X102.545 Y89.845 E.01838
G1 X103.123 Y89.744 E.0184
G1 X103.709 Y89.694 E.01844
G1 X104.489 Y89.687 E.02446
G1 X125.988 Y89.687 E.67408
G1 X126.593 Y89.714 E.01899
G1 X127.183 Y89.791 E.01866
G1 X127.763 Y89.92 E.01863
G1 X128.33 Y90.098 E.01863
G1 X128.879 Y90.326 E.01864
G1 X129.406 Y90.6 E.01862
G1 X129.907 Y90.92 E.01864
G1 X130.374 Y91.278 E.01845
G1 X131.026 Y91.902 E.0283
G1 X131.404 Y92.353 E.01845
G1 X131.742 Y92.835 E.01846
G1 X132.103 Y93.493 E.02353
G1 X132.321 Y94.001 E.01733
G1 X132.53 Y94.576 E.01918
G1 X132.668 Y95.122 E.01766
G1 X132.765 Y95.743 E.01971
G1 X132.806 Y96.301 E.01754
G1 X132.805 Y96.801 E.01568
G1 X132.754 Y97.383 E.01832
G1 X132.578 Y98.269 E.02832
G1 X132.403 Y98.824 E.01825
G1 X132.039 Y99.651 E.02833
G1 X131.746 Y100.159 E.01839
G1 X131.404 Y100.647 E.01868
G1 X131.026 Y101.098 E.01845
G1 X130.374 Y101.722 E.0283
G1 X129.907 Y102.08 E.01845
G1 X129.411 Y102.396 E.01844
G1 X128.486 Y102.838 E.03214
G1 X127.956 Y103.022 E.01759
G1 X127.378 Y103.168 E.01869
G1 X126.757 Y103.266 E.01971
G1 X125.992 Y103.313 E.02403
G1 X104.013 Y103.313 E.68913
G1 X103.414 Y103.287 E.0188
G1 X102.833 Y103.212 E.01837
G1 X102.26 Y103.087 E.01839
G1 X101.699 Y102.912 E.01843
G1 X101.163 Y102.693 E.01815
G1 X100.379 Y102.27 E.02793
G1 X99.901 Y101.942 E.01818
G1 X99.449 Y101.569 E.01837
G1 X99.03 Y101.159 E.01838
G1 X98.647 Y100.713 E.01843
G1 X98.305 Y100.239 E.01833
G1 X98.005 Y99.736 E.01836
G1 X97.748 Y99.207 E.01844
G1 X97.539 Y98.661 E.01833
G1 X97.377 Y98.097 E.0184
G1 X97.264 Y97.52 E.01844
G1 X97.202 Y96.939 E.01832
G1 X97.189 Y96.353 E.01838
G1 X97.227 Y95.768 E.01838
G1 X97.315 Y95.189 E.01836
G1 X97.452 Y94.62 E.01835
G1 X97.638 Y94.063 E.01841
G1 X97.871 Y93.525 E.01838
G1 X98.147 Y93.013 E.01824
G1 X98.616 Y92.332 E.02593
G1 X98.351 Y92.052 F9000
;TYPE:External perimeter
G1 F1200
G1 X98.754 Y91.583 E.01939
G1 X99.196 Y91.15 E.0194
G1 X99.675 Y90.756 E.01945
G1 X100.182 Y90.407 E.0193
G1 X100.722 Y90.101 E.01946
G1 X101.284 Y89.843 E.01939
G1 X101.866 Y89.634 E.01939
G1 X102.465 Y89.476 E.01942
G1 X103.074 Y89.37 E.01938
G1 X103.691 Y89.317 E.01942
G1 X104.488 Y89.31 E.02499
G1 X125.996 Y89.31 E.67437
G1 X126.626 Y89.338 E.01977
G1 X127.248 Y89.419 E.01967
G1 X127.861 Y89.555 E.01969
G1 X128.459 Y89.744 E.01966
G1 X129.038 Y89.984 E.01965
G1 X129.595 Y90.273 E.01968
G1 X130.124 Y90.61 E.01967
G1 X130.62 Y90.991 E.01961
G1 X131.302 Y91.644 E.0296
G1 X131.704 Y92.123 E.01961
G1 X132.062 Y92.635 E.01959
G1 X132.433 Y93.312 E.02421
G1 X132.672 Y93.864 E.01886
G1 X132.894 Y94.478 E.02047
G1 X133.039 Y95.056 E.01868
G1 X133.141 Y95.71 E.02075
G1 X133.183 Y96.301 E.01858
G1 X133.182 Y96.817 E.01618
G1 X133.128 Y97.437 E.01951
G1 X132.944 Y98.363 E.0296
G1 X132.756 Y98.957 E.01953
G1 X132.376 Y99.822 E.02962
G1 X132.065 Y100.361 E.01951
G1 X131.704 Y100.877 E.01975
G1 X131.302 Y101.356 E.01961
G1 X130.619 Y102.009 E.02963
G1 X130.124 Y102.389 E.01957
G1 X129.596 Y102.726 E.01964
G1 X129.068 Y102.986 E.01845
G1 X128.529 Y103.223 E.01846
G1 X128.053 Y103.386 E.01578
G1 X127.443 Y103.539 E.01972
G1 X126.79 Y103.641 E.02072
G1 X125.996 Y103.69 E.02494
G1 X104.005 Y103.69 E.68951
G1 X103.382 Y103.663 E.01955
G1 X102.768 Y103.584 E.01941
G1 X102.164 Y103.451 E.01939
G1 X101.572 Y103.267 E.01944
G1 X101.002 Y103.035 E.0193
G1 X100.182 Y102.592 E.02922
G1 X99.674 Y102.243 E.01932
G1 X99.196 Y101.85 E.0194
G1 X98.754 Y101.417 E.0194
G1 X98.35 Y100.947 E.01943
G1 X97.99 Y100.446 E.01934
G1 X97.673 Y99.915 E.01939
G1 X97.402 Y99.357 E.01945
G1 X97.181 Y98.781 E.01934
G1 X97.01 Y98.186 E.01941
G1 X96.891 Y97.577 E.01946
G1 X96.825 Y96.964 E.01933
G1 X96.812 Y96.345 E.01941
G1 X96.852 Y95.728 E.01939
G1 X96.944 Y95.116 E.0194
G1 X97.089 Y94.516 E.01935
G1 X97.286 Y93.928 E.01944
G1 X97.532 Y93.361 E.01938
G1 X97.825 Y92.816 E.0194
G1 X98.317 Y92.101 E.02721
G1 X98.747 Y92.106 F9000
G1 E-3.5 F3600
;WIPE_START
G1 F7200
G1 X98.754 Y91.583 E-.32191
G1 X99.196 Y91.15 E-.29391
G1 X99.675 Y90.756 E-.29461
G1 X100.182 Y90.407 E-.29237
G1 X100.722 Y90.101 E-.29482
G1 X100.727 Y90.099 E-.00238
;WIPE_END
G1 X124.945 Y94.009 F9000
G1 E5 F2400
;TYPE:Perimeter
G1 F1200
G1 X125.038 Y93.964 E.00324
G1 X125.513 Y93.833 E.01545
G1 X126.036 Y93.787 E.01646
G1 X126.571 Y93.85 E.01689
G1 X127.099 Y94.02 E.01739
G1 X127.554 Y94.275 E.01635
G1 X127.972 Y94.638 E.01736
G1 X128.283 Y95.033 E.01576
G1 X128.515 Y95.481 E.01582
G1 X128.672 Y96.023 E.01769
G1 X128.712 Y96.568 E.01713
G1 X128.649 Y97.072 E.01593
G1 X128.499 Y97.557 E.01592
G1 X128.229 Y98.042 E.0174
G1 X127.904 Y98.434 E.01597
G1 X127.514 Y98.751 E.01576
G1 X127.029 Y99.012 E.01727
G1 X126.54 Y99.158 E.016
G1 X126.02 Y99.214 E.0164
G1 X125.514 Y99.167 E.01593
G1 X125.038 Y99.036 E.01548
G1 X124.53 Y98.778 E.01786
G1 X124.141 Y98.475 E.01546
G1 X123.771 Y98.042 E.01786
G1 X123.527 Y97.613 E.01547
G1 X123.351 Y97.078 E.01766
G1 X123.285 Y96.5 E.01824
G1 X123.371 Y95.833 E.02109
G1 X123.537 Y95.368 E.01548
G1 X123.826 Y94.878 E.01784
G1 X124.156 Y94.513 E.01543
G1 X124.607 Y94.173 E.01771
G1 X124.891 Y94.035 E.0099
G1 X125.103 Y94.348 F9000
G1 F1200
G1 X125.554 Y94.208 E.01481
G1 X126.043 Y94.165 E.01539
G1 X126.555 Y94.238 E.01622
G1 X126.949 Y94.367 E.013
G1 X127.374 Y94.612 E.01538
G1 X127.694 Y94.893 E.01335
G1 X127.995 Y95.287 E.01555
G1 X128.215 Y95.785 E.01707
G1 X128.307 Y96.137 E.01141
G1 X128.335 Y96.549 E.01295
G1 X128.253 Y97.085 E.017
G1 X128.138 Y97.439 E.01167
G1 X127.877 Y97.879 E.01604
G1 X127.606 Y98.194 E.01303
G1 X127.213 Y98.496 E.01554
G1 X126.745 Y98.706 E.01608
G1 X126.363 Y98.807 E.01239
G1 X125.938 Y98.834 E.01335
G1 X125.446 Y98.769 E.01556
G1 X125.151 Y98.676 E.0097
G1 X124.62 Y98.385 E.01899
G1 X124.306 Y98.107 E.01315
G1 X124.004 Y97.713 E.01557
G1 X123.82 Y97.337 E.01313
G1 X123.693 Y96.863 E.01539
G1 X123.666 Y96.438 E.01335
G1 X123.731 Y95.947 E.01553
G1 X123.867 Y95.55 E.01316
G1 X124.115 Y95.12 E.01556
G1 X124.393 Y94.806 E.01315
G1 X124.781 Y94.508 E.01534
G1 X125.049 Y94.375 E.00938
G1 X125.265 Y94.683 F9000
;TYPE:External perimeter
G1 F1200
G1 X125.596 Y94.583 E.01084
G1 X126.174 Y94.555 E.01814
G1 X126.73 Y94.682 E.01788
G1 X127.132 Y94.901 E.01435
G1 X127.4 Y95.129 E.01103
G1 X127.661 Y95.461 E.01324
G1 X127.853 Y95.891 E.01477
G1 X127.931 Y96.17 E.00908
G1 X127.959 Y96.516 E.01088
G1 X127.891 Y96.979 E.01467
G1 X127.718 Y97.429 E.01512
G1 X127.399 Y97.871 E.01709
G1 X127.039 Y98.161 E.01449
G1 X126.64 Y98.344 E.01376
G1 X126.329 Y98.431 E.01013
G1 X125.979 Y98.459 E.01101
G1 X125.56 Y98.409 E.01323
G1 X125.265 Y98.316 E.0097
G1 X124.863 Y98.096 E.01437
G1 X124.6 Y97.871 E.01085
G1 X124.338 Y97.539 E.01326
G1 X124.182 Y97.231 E.01083
G1 X124.068 Y96.83 E.01307
G1 X124.041 Y96.479 E.01104
G1 X124.09 Y96.06 E.01323
G1 X124.198 Y95.731 E.01086
G1 X124.404 Y95.363 E.01322
G1 X124.629 Y95.1 E.01085
G1 X124.956 Y94.842 E.01306
G1 X125.212 Y94.711 E.00902
G1 X125.311 Y94.341 F9000
G1 E-3.5 F3600
;WIPE_START
G1 F7200
G1 X125.596 Y94.583 E-.19227
G1 X126.174 Y94.555 E-.27487
G1 X126.73 Y94.682 E-.2709
G1 X127.132 Y94.901 E-.21745
G1 X127.4 Y95.129 E-.16714
G1 X127.661 Y95.461 E-.2006
G1 X127.813 Y95.801 E-.17677
;WIPE_END
G1 X103.444 Y99.145 F9000
G1 E5 F2400
;TYPE:Perimeter
G1 F1200
G1 X103.333 Y99.129 E.00352
G1 X102.868 Y98.963 E.01548
G1 X102.4 Y98.692 E.01696
G1 X102.141 Y98.475 E.01059
G1 X101.774 Y98.047 E.01768
G1 X101.515 Y97.589 E.0165
G1 X101.351 Y97.078 E.01683
G1 X101.286 Y96.52 E.01761
G1 X101.333 Y96.014 E.01593
G1 X101.469 Y95.523 E.01597
G1 X101.722 Y95.031 E.01735
G1 X102.032 Y94.633 E.01582
G1 X102.419 Y94.301 E.01599
G1 X102.885 Y94.028 E.01693
G1 X103.376 Y93.859 E.01628
G1 X103.891 Y93.792 E.01628
G1 X104.47 Y93.827 E.01819
G1 X105.131 Y94.037 E.02175
G1 X105.622 Y94.327 E.01788
G1 X105.988 Y94.657 E.01545
G1 X106.33 Y95.113 E.01787
G1 X106.541 Y95.557 E.01541
G1 X106.682 Y96.103 E.01768
G1 X106.71 Y96.582 E.01504
G1 X106.649 Y97.072 E.01548
G1 X106.463 Y97.631 E.01847
G1 X106.173 Y98.122 E.01788
G1 X105.842 Y98.488 E.01547
G1 X105.387 Y98.83 E.01785
G1 X104.941 Y99.042 E.01548
G1 X104.39 Y99.184 E.01784
G1 X103.81 Y99.199 E.01819
G1 X103.503 Y99.154 E.00973
G1 X103.505 Y98.777 F9000
G1 F1200
G1 X103.049 Y98.633 E.01499
G1 X102.62 Y98.385 E.01554
G1 X102.383 Y98.186 E.0097
G1 X102.049 Y97.787 E.01631
G1 X101.82 Y97.337 E.01583
G1 X101.693 Y96.863 E.01539
G1 X101.666 Y96.438 E.01335
G1 X101.742 Y95.912 E.01666
G1 X101.867 Y95.55 E.01201
G1 X102.141 Y95.089 E.01681
G1 X102.393 Y94.806 E.01188
G1 X102.781 Y94.508 E.01534
G1 X103.317 Y94.272 E.01836
G1 X103.658 Y94.197 E.01095
G1 X104.043 Y94.165 E.01211
G1 X104.466 Y94.212 E.01334
G1 X104.95 Y94.367 E.01593
G1 X105.379 Y94.615 E.01554
G1 X105.694 Y94.893 E.01317
G1 X105.995 Y95.287 E.01555
G1 X106.179 Y95.663 E.01313
G1 X106.307 Y96.137 E.01539
G1 X106.335 Y96.549 E.01295
G1 X106.287 Y96.966 E.01316
G1 X106.132 Y97.45 E.01593
G1 X105.884 Y97.88 E.01556
G1 X105.606 Y98.194 E.01315
G1 X105.213 Y98.496 E.01554
G1 X104.836 Y98.68 E.01315
G1 X104.357 Y98.808 E.01555
G1 X103.851 Y98.824 E.01587
G1 X103.565 Y98.785 E.00905
G1 X103.56 Y98.409 F9000
;TYPE:External perimeter
G1 F1200
G1 X103.231 Y98.302 E.01085
G1 X102.863 Y98.096 E.01322
G1 X102.626 Y97.897 E.0097
G1 X102.297 Y97.458 E.0172
G1 X102.177 Y97.214 E.00853
G1 X102.068 Y96.83 E.01252
G1 X102.041 Y96.479 E.01104
G1 X102.101 Y96.026 E.01433
G1 X102.198 Y95.731 E.00974
G1 X102.43 Y95.331 E.0145
G1 X102.629 Y95.1 E.00956
G1 X102.956 Y94.842 E.01306
G1 X103.43 Y94.631 E.01627
G1 X103.974 Y94.541 E.01729
G1 X104.36 Y94.574 E.01215
G1 X104.768 Y94.698 E.01337
G1 X105.137 Y94.904 E.01325
G1 X105.4 Y95.129 E.01085
G1 X105.661 Y95.461 E.01324
G1 X105.817 Y95.769 E.01083
G1 X105.931 Y96.17 E.01307
G1 X105.959 Y96.516 E.01088
