; generated by PrusaSlicer 2.6.0+win64 on 2024-01-06 at 22:59:36 UTC

; 

; external perimeters extrusion width = 0.42mm
; perimeters extrusion width = 0.44mm
; infill extrusion width = 0.44mm
; solid infill extrusion width = 0.44mm
; top infill extrusion width = 0.40mm
; first layer extrusion width = 0.42mm

M73 P0 R50
;TYPE:Custom
G90 ; use absolute coordinates
M83 ; extruder relative mode
M140 S60 ; set final bed temp
BED_MESH_CALIBRATE AREA_START=93.9344,64.1844 AREA_END=136.066,128.816
M104 S150 ; set temporary nozzle temp to prevent oozing during homing
G4 S30 ; allow partial nozzle warmup
G28 ; home all axis
G1 Z50 F240
G1 X2.0 Y10 F3000
M104 S210 ; set final nozzle temp
M190 S60 ; wait for bed temp to stabilize
M109 S210 ; wait for nozzle temp to stabilize
M73 P0 R49
G1 Z0.28 F240
G92 E0
G1 X2.0 Y140 E10 F1500 ; prime the nozzle
G1 X2.3 Y140 F5000
G92 E0
M73 P1 R49
G1 X2.3 Y10 E10 F1200 ; prime the nozzle
G92 E0
G21 ; set units to millimeters
G90 ; use absolute coordinates
M83 ; use relative distances for extrusion
; Filament gcode
M107
;LAYER_CHANGE
;Z:0.2
;HEIGHT:0.2
;BEFORE_LAYER_CHANGE
G92 E0
;0.2


G1 E-5 F3600
G1 Z.2 F9000
;AFTER_LAYER_CHANGE
;0.2
G1 X95.494 Y72.992
G1 E5 F2400
M204 S500
;TYPE:Skirt/Brim
;WIDTH:0.42
G1 F1200
G1 X102.526 Y65.948 E.31208
G1 X103.498 Y65.179 E.03886
G1 X104.554 Y64.674 E.0367
G1 X105.454 Y64.445 E.02912
G1 X106.246 Y64.374 E.02493
G1 X123.745 Y64.374 E.54867
G1 X124.755 Y64.484 E.03186
G1 X125.659 Y64.754 E.02958
G1 X126.491 Y65.172 E.02919
G1 X127.348 Y65.827 E.03382
G1 X134.568 Y73.063 E.3205
G1 X135.303 Y74.161 E.04143
G1 X135.765 Y75.487 E.04403
G1 X135.877 Y76.578 E.03439
G1 X135.877 Y120.422 E1.3747
G1 X135.808 Y121.276 E.02686
G1 X135.577 Y122.191 E.02959
G1 X135.193 Y123.046 E.02939
G1 X134.571 Y123.934 E.03399
G1 X131.249 Y127.264 E.14748
G1 X130.695 Y127.696 E.02203
G1 X130.01 Y128.091 E.02479
G1 X129.218 Y128.4 E.02666
G1 X128.533 Y128.557 E.02203
G1 X127.672 Y128.627 E.02709
G1 X102.328 Y128.627 E.79464
G1 X101.48 Y128.559 E.02667
G1 X100.559 Y128.327 E.02978
G1 X99.604 Y127.885 E.03299
G1 X98.816 Y127.321 E.03038
G1 X95.437 Y123.943 E.14981
G1 X94.945 Y123.278 E.02594
G1 X94.569 Y122.565 E.02527
G1 X94.296 Y121.774 E.02624
G1 X94.153 Y120.983 E.0252
G1 X94.123 Y76.578 E1.39229
G1 X94.208 Y75.629 E.02987
G1 X94.433 Y74.779 E.02757
G1 X94.841 Y73.895 E.03053
G1 X95.459 Y73.041 E.03305
; printing object mount.stl id:0 copy 0
G1 E-3.5 F3600
;WIPE_START
G1 F7200
G1 X97.688 Y70.804 E-1.5
;WIPE_END
G1 X105.965 Y69.977 F9000
G1 E5 F2400
;TYPE:Perimeter
;WIDTH:0.468655
G1 F1200
G1 X105.973 Y69.934 E.00155
;WIDTH:0.51731
G1 X106.01 Y69.74 E.00779
;WIDTH:0.565965
G1 X106.047 Y69.545 E.00863
G1 X106.272 Y69.341 E.01321
;WIDTH:0.5227
G1 X106.493 Y69.269 E.00927
;WIDTH:0.474263
G1 X106.715 Y69.197 E.00837
;WIDTH:0.425825
G1 X106.879 Y69.187 E.00523
;WIDTH:0.417274
G1 X123.121 Y69.188 E.50558
;WIDTH:0.465146
G1 X123.4 Y69.249 E.01003
;WIDTH:0.513853
G1 X123.68 Y69.311 E.01123
;WIDTH:0.539914
G1 X123.816 Y69.428 E.00741
;WIDTH:0.565974
G1 X123.953 Y69.545 E.00784
G1 X123.99 Y69.74 E.00863
;WIDTH:0.517316
G1 X124.027 Y69.934 E.00779
;WIDTH:0.468658
G1 X124.064 Y70.129 E.00703
;WIDTH:0.419999
G1 X124.064 Y90.371 E.63467
G1 X124.014 Y90.676 E.00969
G1 X123.825 Y90.999 E.01173
G1 X123.59 Y91.189 E.00948
G1 X123.293 Y91.299 E.00993
G1 X122.728 Y91.314 E.01772
G1 X106.879 Y91.314 E.49693
G1 X106.53 Y91.247 E.01114
G1 X106.257 Y91.08 E.01003
G1 X106.065 Y90.848 E.00944
G1 X105.952 Y90.544 E.01017
G1 X105.936 Y89.994 E.01725
G1 X105.936 Y84.887 E.16013
G1 X105.936 Y70.129 E.46273
;WIDTH:0.468655
G1 X105.954 Y70.036 E.00335
G1 X106.352 Y70.024 F9000
;WIDTH:0.419999
G1 F1200
G1 X106.454 Y69.755 E.00902
G1 X106.658 Y69.608 E.00788
G1 X106.879 Y69.563 E.00707
G1 X123.122 Y69.563 E.50929
G1 X123.44 Y69.661 E.01043
G1 X123.585 Y69.804 E.00639
G1 X123.687 Y70.129 E.01068
G1 X123.687 Y90.371 E.63467
G1 X123.635 Y90.608 E.00761
G1 X123.449 Y90.833 E.00915
G1 X123.224 Y90.928 E.00766
G1 X122.353 Y90.937 E.02731
G1 X106.879 Y90.937 E.48518
G1 X106.595 Y90.861 E.00922
G1 X106.39 Y90.657 E.00907
G1 X106.315 Y90.415 E.00794
G1 X106.313 Y70.129 E.63605
G1 X106.331 Y70.08 E.00164
G1 X106.69 Y70.129 F9000
;TYPE:External perimeter
G1 F1200
G1 X106.763 Y69.979 E.00523
G1 X106.879 Y69.94 E.00384
G1 X123.121 Y69.94 E.50926
G1 X123.276 Y70.02 E.00547
G1 X123.31 Y70.129 E.00358
G1 X123.31 Y90.371 E.63467
G1 X123.244 Y90.515 E.00497
G1 X123.121 Y90.56 E.00411
G1 X106.879 Y90.56 E.50926
G1 X106.738 Y90.497 E.00484
G1 X106.69 Y90.371 E.00423
G1 X106.69 Y70.189 E.63279
G1 X106.577 Y70.006 F9000
M73 P2 R49
G1 E-3.5 F3600
;WIPE_START
G1 F7200
G1 X106.763 Y69.979 E-.10561
G1 X106.879 Y69.94 E-.05813
G1 X109.692 Y69.94 E-1.33626
;WIPE_END
G1 X100.097 Y92.907 F9000
G1 E5 F2400
;TYPE:Perimeter
G1 F1200
G1 X100.177 Y92.811 E.00392
G1 X100.559 Y92.513 E.01519
G1 X101.057 Y92.26 E.01751
G1 X101.524 Y92.132 E.01518
G1 X102.046 Y92.087 E.01643
G1 X102.563 Y92.15 E.01633
G1 X103.094 Y92.323 E.01751
G1 X103.515 Y92.563 E.01519
G1 X103.939 Y92.927 E.01752
G1 X104.237 Y93.309 E.01519
G1 X104.49 Y93.807 E.01751
G1 X104.618 Y94.275 E.01521
G1 X104.659 Y94.853 E.01817
G1 X104.58 Y95.406 E.01751
G1 X104.417 Y95.862 E.01518
G1 X104.166 Y96.301 E.01586
G1 X103.823 Y96.69 E.01626
G1 X103.421 Y97.004 E.01599
G1 X102.942 Y97.24 E.01674
G1 X102.475 Y97.368 E.01518
G1 X101.897 Y97.409 E.01817
G1 X101.344 Y97.33 E.01751
G1 X100.906 Y97.177 E.01455
G1 X100.485 Y96.937 E.01519
G1 X100.047 Y96.557 E.01818
G1 X99.712 Y96.111 E.01749
G1 X99.504 Y95.672 E.01523
G1 X99.366 Y95.131 E.01751
G1 X99.339 Y94.832 E.00941
G1 X99.381 Y94.282 E.0173
G1 X99.51 Y93.809 E.01537
G1 X99.763 Y93.309 E.01757
G1 X100.058 Y92.953 E.0145
G1 X100.384 Y93.14 F9000
G1 F1200
G1 X100.741 Y92.844 E.01454
G1 X101.171 Y92.62 E.0152
G1 X101.565 Y92.507 E.01285
G1 X102.042 Y92.465 E.01501
G1 X102.457 Y92.512 E.0131
G1 X102.92 Y92.658 E.01522
G1 X103.279 Y92.857 E.01287
G1 X103.65 Y93.169 E.0152
G1 X103.906 Y93.491 E.0129
G1 X104.13 Y93.921 E.0152
G1 X104.243 Y94.316 E.01288
G1 X104.284 Y94.812 E.0156
G1 X104.22 Y95.292 E.01518
G1 X104.086 Y95.681 E.0129
G1 X103.79 Y96.165 E.01779
G1 X103.571 Y96.409 E.01028
G1 X103.186 Y96.704 E.01521
G1 X102.829 Y96.88 E.01248
G1 X102.434 Y96.993 E.01288
G1 X101.938 Y97.034 E.0156
G1 X101.458 Y96.97 E.01518
G1 X101.08 Y96.842 E.01251
G1 X100.721 Y96.643 E.01287
G1 X100.342 Y96.321 E.01559
G1 X100.046 Y95.936 E.01523
G1 X99.866 Y95.567 E.01287
G1 X99.741 Y95.098 E.01522
G1 X99.715 Y94.799 E.00941
G1 X99.778 Y94.214 E.01845
G1 X99.914 Y93.819 E.0131
G1 X100.156 Y93.399 E.0152
G1 X100.344 Y93.185 E.00893
G1 X100.661 Y93.388 F9000
;TYPE:External perimeter
G1 F1200
G1 X100.922 Y93.174 E.01058
G1 X101.284 Y92.98 E.01288
G1 X101.607 Y92.882 E.01058
G1 X102.01 Y92.841 E.0127
G1 X102.352 Y92.874 E.01077
G1 X102.746 Y92.992 E.0129
G1 X103.043 Y93.151 E.01056
G1 X103.362 Y93.411 E.0129
G1 X103.576 Y93.672 E.01058
G1 X103.77 Y94.034 E.01288
G1 X103.868 Y94.357 E.01058
G1 X103.909 Y94.771 E.01304
G1 X103.861 Y95.179 E.01288
G1 X103.756 Y95.5 E.01059
G1 X103.501 Y95.922 E.01546
G1 X103.335 Y96.115 E.00798
G1 X103.012 Y96.369 E.01288
G1 X102.716 Y96.52 E.01042
G1 X102.393 Y96.618 E.01058
G1 X101.979 Y96.659 E.01304
G1 X101.571 Y96.611 E.01288
G1 X101.254 Y96.508 E.01045
G1 X100.957 Y96.349 E.01056
G1 X100.636 Y96.085 E.01303
G1 X100.381 Y95.762 E.0129
G1 X100.228 Y95.461 E.01059
G1 X100.117 Y95.066 E.01286
G1 X100.091 Y94.766 E.00944
G1 X100.138 Y94.327 E.01384
G1 X100.244 Y94 E.01078
G1 X100.445 Y93.642 E.01287
G1 X100.623 Y93.434 E.00858
G1 X100.575 Y93.062 F9000
G1 E-3.5 F3600
;WIPE_START
G1 F7200
G1 X100.922 Y93.174 E-.18821
G1 X101.284 Y92.98 E-.19509
G1 X101.607 Y92.882 E-.16033
G1 X102.01 Y92.841 E-.19241
G1 X102.352 Y92.874 E-.1632
G1 X102.746 Y92.992 E-.19536
G1 X103.043 Y93.151 E-.16002
G1 X103.362 Y93.411 E-.19548
G1 X103.429 Y93.492 E-.0499
;WIPE_END
G1 X126.108 Y92.888 F9000
G1 E5 F2400
;TYPE:Perimeter
G1 F1200
G1 X126.177 Y92.811 E.00324
G1 X126.559 Y92.513 E.01519
G1 X127.057 Y92.26 E.01751
G1 X127.524 Y92.132 E.01518
G1 X128.074 Y92.089 E.0173
G1 X128.563 Y92.15 E.01545
G1 X129.111 Y92.332 E.0181
G1 X129.587 Y92.613 E.01733
G1 X129.939 Y92.927 E.01479
G1 X130.237 Y93.309 E.01519
G1 X130.496 Y93.827 E.01816
G1 X130.635 Y94.369 E.01754
G1 X130.661 Y94.832 E.01454
G1 X130.6 Y95.313 E.0152
G1 X130.417 Y95.862 E.01814
G1 X130.133 Y96.343 E.01751
G1 X129.823 Y96.689 E.01457
G1 X129.441 Y96.987 E.01519
G1 X128.924 Y97.245 E.01812
M73 P2 R48
G1 X128.389 Y97.383 E.01732
G1 X127.897 Y97.409 E.01545
G1 X127.344 Y97.33 E.01751
G1 X126.906 Y97.177 E.01455
G1 X126.528 Y96.97 E.01351
G1 X126.132 Y96.65 E.01596
G1 X125.78 Y96.222 E.01738
G1 X125.537 Y95.766 E.0162
G1 X125.366 Y95.131 E.02062
G1 X125.341 Y94.647 E.0152
G1 X125.42 Y94.094 E.01751
G1 X125.582 Y93.639 E.01514
G1 X125.858 Y93.169 E.01709
G1 X126.068 Y92.933 E.0099
G1 X126.383 Y93.14 F9000
G1 F1200
G1 X126.741 Y92.844 E.01456
G1 X127.171 Y92.62 E.0152
G1 X127.565 Y92.507 E.01285
G1 X128.042 Y92.465 E.01501
G1 X128.457 Y92.512 E.0131
G1 X128.93 Y92.663 E.01557
G1 X129.345 Y92.902 E.01502
G1 X129.651 Y93.169 E.01273
G1 X129.906 Y93.491 E.01288
G1 X130.134 Y93.933 E.01559
G1 X130.259 Y94.402 E.01522
G1 X130.285 Y94.799 E.01247
G1 X130.238 Y95.207 E.01288
G1 X130.086 Y95.681 E.01561
G1 X129.844 Y96.101 E.0152
G1 X129.581 Y96.401 E.01251
G1 X129.259 Y96.656 E.01288
G1 X128.818 Y96.883 E.01555
G1 X128.355 Y97.008 E.01504
G1 X127.938 Y97.034 E.0131
G1 X127.458 Y96.97 E.01518
G1 X127.08 Y96.842 E.01251
G1 X126.747 Y96.663 E.01185
G1 X126.349 Y96.331 E.01625
G1 X126.046 Y95.936 E.01561
G1 X125.866 Y95.567 E.01287
G1 X125.741 Y95.099 E.01519
G1 X125.716 Y94.688 E.01291
G1 X125.78 Y94.208 E.01518
G1 X125.913 Y93.82 E.01286
G1 X126.152 Y93.405 E.01502
G1 X126.344 Y93.186 E.00913
G1 X126.661 Y93.388 F9000
;TYPE:External perimeter
G1 F1200
G1 X126.922 Y93.174 E.01058
G1 X127.284 Y92.98 E.01288
G1 X127.607 Y92.882 E.01058
G1 X128.01 Y92.841 E.0127
G1 X128.352 Y92.874 E.01077
G1 X128.749 Y92.994 E.013
G1 X129.103 Y93.192 E.01272
G1 X129.362 Y93.411 E.01063
G1 X129.576 Y93.672 E.01058
G1 X129.772 Y94.038 E.01302
G1 X129.883 Y94.434 E.01289
G1 X129.909 Y94.766 E.01044
G1 X129.876 Y95.102 E.01059
G1 X129.756 Y95.5 E.01303
G1 X129.555 Y95.858 E.01287
G1 X129.339 Y96.112 E.01045
G1 X129.078 Y96.326 E.01058
G1 X128.712 Y96.521 E.013
G1 X128.322 Y96.632 E.01271
G1 X127.979 Y96.659 E.01079
G1 X127.571 Y96.611 E.01288
G1 X127.254 Y96.508 E.01045
G1 X126.965 Y96.355 E.01025
G1 X126.636 Y96.085 E.01334
G1 X126.381 Y95.762 E.0129
G1 X126.228 Y95.461 E.01059
G1 X126.117 Y95.066 E.01286
G1 X126.091 Y94.729 E.0106
G1 X126.139 Y94.321 E.01288
G1 X126.244 Y94.001 E.01056
G1 X126.442 Y93.647 E.01272
G1 X126.623 Y93.434 E.00876
G1 X126.575 Y93.062 F9000
G1 E-3.5 F3600
;WIPE_START
G1 F7200
G1 X126.922 Y93.174 E-.18821
G1 X127.284 Y92.98 E-.19509
G1 X127.607 Y92.882 E-.16033
G1 X128.01 Y92.841 E-.19241
G1 X128.352 Y92.874 E-.1632
G1 X128.749 Y92.994 E-.197
G1 X129.103 Y93.192 E-.19267
G1 X129.362 Y93.411 E-.16111
G1 X129.429 Y93.492 E-.04998
;WIPE_END
G1 X127.802 Y82.71 F9000
G1 E5 F2400
;TYPE:Perimeter
G1 F1200
G1 X128.144 Y82.83 E.01136
G1 X128.697 Y82.909 E.01751
G1 X129.275 Y82.868 E.01817
G1 X129.742 Y82.74 E.01518
G1 X130.161 Y82.538 E.01458
G1 X130.607 Y82.203 E.01749
G1 X130.987 Y81.765 E.01818
G1 X131.227 Y81.344 E.01519
;WIDTH:0.44669
G1 X131.422 Y80.788 E.01978
G1 X131.436 Y81.215 E.01434
;WIDTH:0.419999
G1 X131.436 Y120.334 E1.22655
G1 X131.376 Y120.74 E.01287
G1 X131.167 Y121.076 E.01241
G1 X130.443 Y121.799 E.03208
G1 X130.6 Y121.313 E.01601
G1 X130.658 Y120.861 E.01429
G1 X130.635 Y120.369 E.01544
G1 X130.496 Y119.828 E.01751
G1 X130.288 Y119.39 E.0152
G1 X129.953 Y118.943 E.01751
G1 X129.593 Y118.617 E.01523
G1 X129.112 Y118.333 E.01751
G1 X128.563 Y118.15 E.01814
G1 X128.074 Y118.089 E.01545
G1 X127.524 Y118.132 E.0173
G1 X127.058 Y118.26 E.01515
G1 X126.579 Y118.496 E.01674
G1 X126.149 Y118.835 E.01717
G1 X125.813 Y119.235 E.01638
G1 X125.573 Y119.656 E.01519
G1 X125.42 Y120.094 E.01455
G1 X125.341 Y120.647 E.01751
G1 X125.382 Y121.225 E.01817
G1 X125.51 Y121.692 E.01518
G1 X125.712 Y122.11 E.01456
G1 X126.047 Y122.557 E.01751
G1 X126.407 Y122.883 E.01523
G1 X126.888 Y123.167 E.01751
G1 X127.437 Y123.35 E.01814
G1 X127.936 Y123.412 E.01577
G1 X128.563 Y123.35 E.01975
G1 X129.047 Y123.196 E.01593
G1 X128.36 Y123.883 E.03046
G1 X128.062 Y124.088 E.01134
G1 X127.639 Y124.186 E.01361
G1 X102.416 Y124.186 E.79085
G1 X102.01 Y124.126 E.01287
G1 X101.674 Y123.917 E.01241
G1 X100.951 Y123.193 E.03208
G1 X101.437 Y123.35 E.01601
G1 X101.889 Y123.408 E.01429
G1 X102.381 Y123.385 E.01544
G1 X102.922 Y123.246 E.01751
G1 X103.36 Y123.038 E.0152
G1 X103.807 Y122.703 E.01751
G1 X104.133 Y122.343 E.01523
G1 X104.417 Y121.862 E.01751
G1 X104.58 Y121.406 E.01518
G1 X104.659 Y120.853 E.01751
G1 X104.618 Y120.275 E.01817
G1 X104.49 Y119.808 E.01518
G1 X104.254 Y119.329 E.01674
G1 X103.932 Y118.918 E.01637
G1 X103.551 Y118.584 E.01589
G1 X103.112 Y118.333 E.01586
G1 X102.563 Y118.15 E.01814
G1 X102.074 Y118.089 E.01545
G1 X101.524 Y118.132 E.0173
G1 X101.058 Y118.26 E.01515
G1 X100.64 Y118.462 E.01456
G1 X100.193 Y118.797 E.01751
G1 X99.813 Y119.235 E.01818
G1 X99.573 Y119.656 E.01519
G1 X99.418 Y120.102 E.0148
G1 X99.336 Y120.743 E.02026
G1 X99.4 Y121.313 E.01798
G1 X99.554 Y121.797 E.01593
G1 X98.714 Y120.922 E.03803
G1 X98.571 Y120.472 E.0148
G1 X98.565 Y81.397 E1.22517
;WIDTH:0.446022
G1 X98.578 Y80.788 E.02042
G1 X98.71 Y81.192 E.01425
;WIDTH:0.419999
G1 X98.916 Y81.617 E.01481
G1 X99.248 Y82.058 E.01731
G1 X99.607 Y82.383 E.01518
G1 X100.088 Y82.667 E.01751
G1 X100.544 Y82.83 E.01518
G1 X101.097 Y82.909 E.01751
G1 X101.675 Y82.868 E.01817
G1 X102.142 Y82.74 E.01518
G1 X102.561 Y82.538 E.01458
G1 X103.007 Y82.203 E.01749
G1 X103.387 Y81.765 E.01818
G1 X103.627 Y81.344 E.01519
G1 X103.78 Y80.906 E.01455
G1 X103.859 Y80.353 E.01751
G1 X103.835 Y79.869 E.01519
G1 X103.696 Y79.328 E.01751
G1 X103.488 Y78.89 E.0152
G1 X103.153 Y78.443 E.01751
G1 X102.793 Y78.117 E.01523
G1 X102.312 Y77.833 E.01751
G1 X101.763 Y77.65 E.01814
G1 X101.274 Y77.589 E.01545
G1 X100.724 Y77.632 E.0173
G1 X100.258 Y77.76 E.01515
G1 X99.833 Y77.966 E.01481
G1 X99.392 Y78.298 E.01731
G1 X99.013 Y78.735 E.01814
G1 X98.773 Y79.156 E.01519
;WIDTH:0.437438
G1 X98.573 Y79.774 E.02131
G1 X98.565 Y79.285 E.01604
;WIDTH:0.419999
G1 X98.564 Y76.666 E.08212
G1 X98.633 Y76.24 E.01353
G1 X98.874 Y75.881 E.01356
G1 X105.01 Y69.745 E.27208
;WIDTH:0.467903
G1 X105.229 Y69.56 E.01013
;WIDTH:0.515806
G1 X105.448 Y69.375 E.01127
;WIDTH:0.563709
G1 X105.667 Y69.19 E.01241
G1 X106.024 Y68.934 E.01902
;WIDTH:0.5227
G1 X106.206 Y68.886 E.00751
;WIDTH:0.4933
G1 X106.388 Y68.839 E.00704
;WIDTH:0.4639
G1 X106.879 Y68.813 E.01721
;WIDTH:0.417274
G1 X123.121 Y68.814 E.50558
;WIDTH:0.450176
G1 X123.397 Y68.831 E.00936
;WIDTH:0.483914
G1 X123.673 Y68.848 E.01014
;WIDTH:0.530234
G1 X124.017 Y68.948 E.01452
;WIDTH:0.565974
G1 X124.565 Y69.389 E.03059
;WIDTH:0.517316
G1 X124.777 Y69.567 E.01092
;WIDTH:0.468658
G1 X124.99 Y69.745 E.00983
;WIDTH:0.419999
G1 X130.676 Y75.433 E.25217
G1 X131.218 Y76.007 E.02475
G1 X131.387 Y76.332 E.01149
G1 X131.436 Y76.67 E.01071
G1 X131.436 Y79.105 E.07635
;WIDTH:0.437972
G1 X131.427 Y79.774 E.02198
G1 X131.29 Y79.308 E.01596
;WIDTH:0.419999
G1 X131.088 Y78.889 E.01458
G1 X130.753 Y78.443 E.01749
G1 X130.393 Y78.117 E.01523
G1 X129.912 Y77.833 E.01751
G1 X129.363 Y77.65 E.01814
G1 X128.874 Y77.589 E.01545
G1 X128.324 Y77.632 E.0173
G1 X127.858 Y77.76 E.01515
G1 X127.433 Y77.966 E.01481
G1 X126.992 Y78.298 E.01731
G1 X126.613 Y78.735 E.01814
G1 X126.373 Y79.156 E.01519
G1 X126.22 Y79.594 E.01455
G1 X126.141 Y80.147 E.01751
G1 X126.167 Y80.639 E.01545
G1 X126.305 Y81.174 E.01732
G1 X126.516 Y81.617 E.01539
G1 X126.848 Y82.058 E.01731
G1 X127.285 Y82.437 E.01814
G1 X127.745 Y82.69 E.01646
G1 E-3.5 F3600
;WIPE_START
G1 F7200
G1 X128.144 Y82.83 E-.20085
G1 X128.697 Y82.909 E-.26534
G1 X129.275 Y82.868 E-.27524
