; generated by PrusaSlicer 2.6.0+win64 on 2024-01-05 at 23:35:02 UTC

; 

; external perimeters extrusion width = 0.42mm
; perimeters extrusion width = 0.44mm
; infill extrusion width = 0.44mm
; solid infill extrusion width = 0.44mm
; top infill extrusion width = 0.40mm
; first layer extrusion width = 0.42mm

M73 P0 R38
;TYPE:Custom
G90 ; use absolute coordinates
M83 ; extruder relative mode
M104 S150 ; set temporary nozzle temp to prevent oozing during homing
M140 S60 ; set final bed temp
G4 S30 ; allow partial nozzle warmup
G28 ; home all axis
G1 Z50.14 F240
G1 X2.0 Y10 F3000
M104 S210 ; set final nozzle temp
M190 S60 ; wait for bed temp to stabilize
M109 S210 ; wait for nozzle temp to stabilize
M73 P0 R37
G1 Z0.375 F240
G92 E0
G1 X2.0 Y140 E10 F1500 ; prime the nozzle
M73 P1 R37
G1 X2.3 Y140 F5000
G92 E0
G1 X2.3 Y10 E10 F1200 ; prime the nozzle
G92 E0
G21 ; set units to millimeters
G90 ; use absolute coordinates
M83 ; use relative distances for extrusion
; Filament gcode
M107
;LAYER_CHANGE
;Z:0.2
;HEIGHT:0.2
;BEFORE_LAYER_CHANGE
G92 E0
;0.2


G1 E-5 F3600
G1 Z0.275 F9000
;AFTER_LAYER_CHANGE
;0.2
G1 X101.765 Y84.674
G1 E5 F2400
M204 S500
;TYPE:Skirt/Brim
;WIDTH:0.42
G1 F1200
G1 X102.742 Y83.501 E.04786
G1 X105 Y82.746 E.07465
G1 X125 Y82.746 E.62709
G1 X126.676 Y83.141 E.05399
G1 X127.999 Y84.242 E.05397
G1 X128.754 Y86.5 E.07465
G1 X128.754 Y106.5 E.62709
G1 X128.359 Y108.176 E.05399
G1 X127.258 Y109.499 E.05397
G1 X125 Y110.254 E.07465
G1 X105 Y110.254 E.62709
G1 X103.324 Y109.859 E.05399
G1 X102.001 Y108.758 E.05397
G1 X101.246 Y106.5 E.07465
G1 X101.246 Y86.5 E.62709
G1 X101.641 Y84.824 E.05399
G1 X101.727 Y84.72 E.00423
G1 X102.017 Y84.917 F9000
G1 F1200
G1 X103.107 Y83.703 E.05116
G1 X105 Y83.123 E.06208
G1 X125 Y83.123 E.62709
G1 X126.583 Y83.517 E.05115
G1 X127.797 Y84.607 E.05116
G1 X128.377 Y86.5 E.06208
G1 X128.377 Y106.5 E.62709
G1 X127.983 Y108.083 E.05115
M73 P2 R37
G1 X126.893 Y109.297 E.05116
G1 X125 Y109.877 E.06208
G1 X105 Y109.877 E.62709
G1 X103.417 Y109.483 E.05115
G1 X102.203 Y108.393 E.05116
G1 X101.623 Y106.5 E.06208
G1 X101.623 Y86.5 E.62709
G1 X102.003 Y84.975 E.04928
; printing object Part Studio 1 - Part 1.stl id:0 copy 0
G1 E-3.5 F3600
;WIPE_START
G1 F7200
G1 X103.107 Y83.703 E-.80003
G1 X104.516 Y83.271 E-.69997
;WIPE_END
G1 X106.064 Y87.564 F9000
G1 E5 F2400
;TYPE:Perimeter
;WIDTH:0.419999
G1 F1200
G1 X123.936 Y87.564 E.56036
G1 X123.936 Y105.436 E.56036
G1 X106.064 Y105.436 E.56036
G1 X106.064 Y87.624 E.55848
G1 X105.687 Y87.187 F9000
G1 F1200
G1 X124.313 Y87.187 E.584
G1 X124.313 Y105.813 E.584
G1 X105.687 Y105.813 E.584
G1 X105.687 Y87.247 E.58212
G1 X105.31 Y86.81 F9000
;TYPE:External perimeter
G1 F1200
G1 X124.69 Y86.81 E.60765
G1 X124.69 Y106.19 E.60765
G1 X105.31 Y106.19 E.60765
G1 X105.31 Y86.87 E.60576
G1 X105.696 Y86.914 F9000
G1 E-3.5 F3600
;WIPE_START
G1 F7200
G1 X108.468 Y86.86 E-1.5
;WIPE_END
G1 X123.05 Y87.685 F9000
G1 E5 F2400
;TYPE:Solid infill
;WIDTH:0.421502
G1 F1200
G1 X123.645 Y88.281 E.02651
G1 X123.645 Y88.816 E.01684
G1 X122.684 Y87.855 E.04278
G1 X122.149 Y87.855 E.01684
G1 X123.645 Y89.351 E.0666
G1 X123.645 Y89.887 E.01687
G1 X121.613 Y87.855 E.09046
G1 X121.078 Y87.855 E.01684
G1 X123.645 Y90.422 E.11428
G1 X123.645 Y90.958 E.01687
G1 X120.542 Y87.855 E.13814
G1 X120.007 Y87.855 E.01684
G1 X123.645 Y91.493 E.16196
G1 X123.645 Y92.028 E.01684
G1 X119.472 Y87.855 E.18578
G1 X118.936 Y87.855 E.01687
G1 X123.645 Y92.564 E.20964
G1 X123.645 Y93.099 E.01684
G1 X118.401 Y87.855 E.23345
G1 X117.865 Y87.855 E.01687
G1 X123.645 Y93.635 E.25732
G1 X123.645 Y94.17 E.01684
G1 X117.33 Y87.855 E.28113
G1 X116.795 Y87.855 E.01684
G1 X123.645 Y94.705 E.30495
G1 X123.645 Y95.241 E.01687
G1 X116.259 Y87.855 E.32881
G1 X115.724 Y87.855 E.01684
M73 P2 R36
G1 X123.645 Y95.776 E.35263
G1 X123.645 Y96.312 E.01687
G1 X115.188 Y87.855 E.37649
G1 X114.653 Y87.855 E.01684
G1 X123.645 Y96.847 E.40031
G1 X123.645 Y97.382 E.01684
G1 X114.118 Y87.855 E.42413
G1 X113.582 Y87.855 E.01687
M73 P3 R36
G1 X123.645 Y97.918 E.44799
G1 X123.645 Y98.453 E.01684
G1 X113.047 Y87.855 E.47181
G1 X112.511 Y87.855 E.01687
G1 X123.645 Y98.989 E.49567
G1 X123.645 Y99.524 E.01684
G1 X111.976 Y87.855 E.51948
G1 X111.441 Y87.855 E.01684
G1 X123.645 Y100.059 E.5433
G1 X123.645 Y100.595 E.01687
G1 X110.905 Y87.855 E.56716
G1 X110.37 Y87.855 E.01684
G1 X123.645 Y101.13 E.59098
G1 X123.645 Y101.665 E.01684
G1 X109.835 Y87.855 E.6148
G1 X109.299 Y87.855 E.01687
G1 X123.645 Y102.201 E.63866
G1 X123.645 Y102.736 E.01684
G1 X108.764 Y87.855 E.66248
G1 X108.228 Y87.855 E.01687
G1 X123.645 Y103.272 E.68634
G1 X123.645 Y103.807 E.01684
G1 X107.693 Y87.855 E.71016
G1 X107.158 Y87.855 E.01684
G1 X123.645 Y104.342 E.73397
G1 X123.645 Y104.878 E.01687
G1 X106.622 Y87.855 E.75784
G1 X106.355 Y87.855 E.0084
G1 X106.355 Y88.122 E.0084
G1 X123.378 Y105.145 E.75784
G1 X122.842 Y105.145 E.01687
G1 X106.355 Y88.658 E.73397
G1 X106.355 Y89.193 E.01684
G1 X122.307 Y105.145 E.71016
G1 X121.772 Y105.145 E.01684
G1 X106.355 Y89.728 E.68634
G1 X106.355 Y90.264 E.01687
G1 X121.236 Y105.145 E.66248
G1 X120.701 Y105.145 E.01684
G1 X106.355 Y90.799 E.63866
G1 X106.355 Y91.335 E.01687
G1 X120.165 Y105.145 E.6148
G1 X119.63 Y105.145 E.01684
G1 X106.355 Y91.87 E.59098
G1 X106.355 Y92.405 E.01684
M73 P4 R36
G1 X119.095 Y105.145 E.56716
G1 X118.559 Y105.145 E.01687
G1 X106.355 Y92.941 E.5433
G1 X106.355 Y93.476 E.01684
G1 X118.024 Y105.145 E.51948
G1 X117.488 Y105.145 E.01687
G1 X106.355 Y94.012 E.49562
G1 X106.355 Y94.547 E.01684
G1 X116.953 Y105.145 E.47181
G1 X116.418 Y105.145 E.01684
G1 X106.355 Y95.082 E.44799
G1 X106.355 Y95.618 E.01687
G1 X115.882 Y105.145 E.42413
G1 X115.347 Y105.145 E.01684
G1 X106.355 Y96.153 E.40031
G1 X106.355 Y96.689 E.01687
G1 X114.811 Y105.145 E.37645
G1 X114.276 Y105.145 E.01684
G1 X106.355 Y97.224 E.35263
G1 X106.355 Y97.759 E.01684
G1 X113.741 Y105.145 E.32881
G1 X113.205 Y105.145 E.01687
G1 X106.355 Y98.295 E.30495
G1 X106.355 Y98.83 E.01684
G1 X112.67 Y105.145 E.28113
G1 X112.134 Y105.145 E.01687
G1 X106.355 Y99.366 E.25727
G1 X106.355 Y99.901 E.01684
G1 X111.599 Y105.145 E.23345
G1 X111.064 Y105.145 E.01684
G1 X106.355 Y100.436 E.20964
G1 X106.355 Y100.972 E.01687
G1 X110.528 Y105.145 E.18578
G1 X109.993 Y105.145 E.01684
G1 X106.355 Y101.507 E.16196
G1 X106.355 Y102.043 E.01687
G1 X109.457 Y105.145 E.1381
G1 X108.922 Y105.145 E.01684
G1 X106.355 Y102.578 E.11428
G1 X106.355 Y103.113 E.01684
G1 X108.387 Y105.145 E.09046
G1 X107.851 Y105.145 E.01687
G1 X106.355 Y103.649 E.0666
G1 X106.355 Y104.184 E.01684
G1 X107.316 Y105.145 E.04278
G1 X106.78 Y105.145 E.01687
G1 X106.185 Y104.55 E.02649
; stop printing object Part Studio 1 - Part 1.stl id:0 copy 0
M106 S255
;LAYER_CHANGE
;Z:0.4
;HEIGHT:0.2
;BEFORE_LAYER_CHANGE
G92 E0
;0.4


G1 E-3.5 F3600
;WIPE_START
G1 F7200
G1 X106.78 Y105.145 E-.39969
G1 X107.316 Y105.145 E-.2546
G1 X106.355 Y104.184 E-.64555
G1 X106.355 Y103.763 E-.20016
;WIPE_END
G1 Z0.5166666666666667 F9000
;AFTER_LAYER_CHANGE
;0.4
M104 S205 ; set temperature
G1 X101.246 Y103.763
G1 E5 F2400
;TYPE:Skirt/Brim
;WIDTH:0.42
G1 X101.246 Y86.5 E.54127
G1 X101.641 Y84.824 E.05399
G1 X102.742 Y83.501 E.05397
G1 X105 Y82.746 E.07465
G1 X125 Y82.746 E.62709
G1 X126.676 Y83.141 E.05399
G1 X127.999 Y84.242 E.05397
G1 X128.754 Y86.5 E.07465
G1 X128.754 Y106.5 E.62709
G1 X128.359 Y108.176 E.05399
G1 X127.258 Y109.499 E.05397
G1 X125 Y110.254 E.07465
G1 X105 Y110.254 E.62709
G1 X103.324 Y109.859 E.05399
G1 X102.001 Y108.758 E.05397
G1 X101.246 Y106.5 E.07465
G1 X101.246 Y103.823 E.08394
G1 X101.623 Y103.823 F9000
G1 F2400
G1 X101.623 Y86.5 E.54315
G1 X102.017 Y84.917 E.05115
G1 X103.107 Y83.703 E.05116
G1 X105 Y83.123 E.06208
G1 X125 Y83.123 E.62709
G1 X126.583 Y83.517 E.05115
G1 X127.797 Y84.607 E.05116
G1 X128.377 Y86.5 E.06208
G1 X128.377 Y106.5 E.62709
G1 X127.983 Y108.083 E.05115
G1 X126.893 Y109.297 E.05116
G1 X125 Y109.877 E.06208
G1 X105 Y109.877 E.62709
G1 X103.417 Y109.483 E.05115
G1 X102.203 Y108.393 E.05116
G1 X101.623 Y106.5 E.06208
G1 X101.623 Y103.883 E.08205
; printing object Part Studio 1 - Part 1.stl id:0 copy 0
G1 E-3.5 F3600
;WIPE_START
G1 F7200
G1 X101.623 Y100.725 E-1.5
;WIPE_END
G1 X105.994 Y105.506 F9000
G1 E5 F2400
;TYPE:Perimeter
;WIDTH:0.439999
G1 X105.994 Y87.494 E.59471
G1 X124.006 Y87.494 E.59471
G1 X124.006 Y105.506 E.59471
G1 X106.054 Y105.506 E.59273
G1 X105.597 Y105.903 F9000
G1 F2400
G1 X105.597 Y87.097 E.62092
G1 X124.403 Y87.097 E.62092
G1 X124.403 Y105.903 E.62092
G1 X105.657 Y105.903 E.61894
M73 P5 R36
G1 X105.21 Y106.29 F9000
;TYPE:External perimeter
;WIDTH:0.419999
G1 F1500
G1 X105.21 Y86.71 E.61392
G1 X124.79 Y86.71 E.61392
G1 X124.79 Y106.29 E.61392
G1 X105.27 Y106.29 E.61203
G1 X105.314 Y105.904 F9000
G1 E-3.5 F3600
;WIPE_START
G1 F7200
G1 X105.26 Y103.132 E-1.5
;WIPE_END
G1 X106.408 Y87.832 F9000
G1 E5 F2400
;TYPE:Solid infill
;WIDTH:0.53634
G1 X106.364 Y87.789 E.00252
G1 X106.304 Y87.804 E.00254
G1 X106.289 Y87.864 E.00254
G1 X106.332 Y87.908 E.00252
G1 X106.392 Y87.892 E.00255
;WIDTH:0.439999
G1 X106.3 Y88.526 E.02115
G1 X107.026 Y87.8 E.0339
G1 X107.587 Y87.8 E.01852
G1 X106.3 Y89.087 E.06009
G1 X106.3 Y89.649 E.01856
G1 X108.149 Y87.8 E.08634
G1 X108.711 Y87.8 E.01856
G1 X106.3 Y90.211 E.11258
G1 X106.3 Y90.772 E.01852
G1 X109.272 Y87.8 E.13877
G1 X109.834 Y87.8 E.01856
G1 X106.3 Y91.334 E.16501
G1 X106.3 Y91.895 E.01852
G1 X110.395 Y87.8 E.19121
G1 X110.957 Y87.8 E.01856
G1 X106.3 Y92.457 E.21745
G1 X106.3 Y93.018 E.01852
G1 X111.518 Y87.8 E.24365
G1 X112.08 Y87.8 E.01856
G1 X106.3 Y93.58 E.26989
G1 X106.3 Y94.141 E.01852
G1 X112.641 Y87.8 E.29608
G1 X113.203 Y87.8 E.01856
G1 X106.3 Y94.703 E.32232
G1 X106.3 Y95.265 E.01856
G1 X113.765 Y87.8 E.34857
G1 X114.326 Y87.8 E.01852
G1 X106.3 Y95.826 E.37476
G1 X106.3 Y96.388 E.01856
G1 X114.888 Y87.8 E.401
G1 X115.449 Y87.8 E.01852
G1 X106.3 Y96.949 E.4272
G1 X106.3 Y97.511 E.01856
G1 X116.011 Y87.8 E.45344
G1 X116.572 Y87.8 E.01852
G1 X106.3 Y98.072 E.47964
G1 X106.3 Y98.634 E.01856
G1 X117.134 Y87.8 E.50588
G1 X117.695 Y87.8 E.01852
G1 X106.3 Y99.195 E.53207
G1 X106.3 Y99.757 E.01856
G1 X118.257 Y87.8 E.55831
G1 X118.819 Y87.8 E.01856
G1 X106.3 Y100.319 E.58456
G1 X106.3 Y100.88 E.01852
M73 P5 R35
G1 X119.38 Y87.8 E.61075
G1 X119.942 Y87.8 E.01856
G1 X106.3 Y101.442 E.63699
G1 X106.3 Y102.003 E.01852
G1 X120.503 Y87.8 E.66319
G1 X121.065 Y87.8 E.01856
G1 X106.3 Y102.565 E.68943
G1 X106.3 Y103.126 E.01852
G1 X121.626 Y87.8 E.71562
G1 X122.188 Y87.8 E.01856
G1 X106.3 Y103.688 E.74187
G1 X106.3 Y104.249 E.01852
G1 X122.749 Y87.8 E.76806
G1 X123.311 Y87.8 E.01856
G1 X106.3 Y104.811 E.7943
G1 X106.243 Y105.287 E.01583
;WIDTH:0.38292
G1 X106.172 Y105.268 E.00208
G1 X106.191 Y105.339 E.00208
G1 X106.232 Y105.328 E.0012
;WIDTH:0.41146
G1 X106.352 Y105.264 E.00417
;WIDTH:0.439999
G1 X106.472 Y105.2 E.00449
G1 X123.7 Y87.972 E.80443
G1 X123.764 Y87.852 E.00449
;WIDTH:0.41146
G1 X123.828 Y87.732 E.00417
;WIDTH:0.38292
G1 X123.787 Y87.743 E.0012
G1 X123.768 Y87.672 E.00208
G1 X123.839 Y87.691 E.00208
G1 X123.7 Y88.534 F9000
;WIDTH:0.439999
G1 F2400
G1 X107.034 Y105.2 E.77819
G1 X107.595 Y105.2 E.01852
G1 X123.7 Y89.095 E.752
G1 X123.7 Y89.657 E.01856
G1 X108.157 Y105.2 E.72576
G1 X108.719 Y105.2 E.01856
G1 X123.7 Y90.219 E.69951
G1 X123.7 Y90.78 E.01852
G1 X109.28 Y105.2 E.67332
G1 X109.842 Y105.2 E.01856
G1 X123.7 Y91.342 E.64708
G1 X123.7 Y91.903 E.01852
G1 X110.403 Y105.2 E.62088
G1 X110.965 Y105.2 E.01856
G1 X123.7 Y92.465 E.59464
G1 X123.7 Y93.026 E.01852
G1 X111.526 Y105.2 E.56845
G1 X112.088 Y105.2 E.01856
M73 P6 R35
G1 X123.7 Y93.588 E.5422
G1 X123.7 Y94.149 E.01852
G1 X112.649 Y105.2 E.51601
G1 X113.211 Y105.2 E.01856
G1 X123.7 Y94.711 E.48977
G1 X123.7 Y95.273 E.01856
G1 X113.773 Y105.2 E.46353
G1 X114.334 Y105.2 E.01852
G1 X123.7 Y95.834 E.43733
G1 X123.7 Y96.396 E.01856
G1 X114.896 Y105.2 E.41109
G1 X115.457 Y105.2 E.01852
G1 X123.7 Y96.957 E.38489
G1 X123.7 Y97.519 E.01856
G1 X116.019 Y105.2 E.35865
G1 X116.58 Y105.2 E.01852
G1 X123.7 Y98.08 E.33246
G1 X123.7 Y98.642 E.01856
G1 X117.142 Y105.2 E.30622
G1 X117.703 Y105.2 E.01852
G1 X123.7 Y99.203 E.28002
G1 X123.7 Y99.765 E.01856
G1 X118.265 Y105.2 E.25378
G1 X118.827 Y105.2 E.01856
G1 X123.7 Y100.327 E.22754
G1 X123.7 Y100.888 E.01852
G1 X119.388 Y105.2 E.20134
G1 X119.95 Y105.2 E.01856
G1 X123.7 Y101.45 E.1751
G1 X123.7 Y102.011 E.01852
G1 X120.511 Y105.2 E.14891
G1 X121.073 Y105.2 E.01856
G1 X123.7 Y102.573 E.12266
G1 X123.7 Y103.134 E.01852
G1 X121.634 Y105.2 E.09647
G1 X122.196 Y105.2 E.01856
G1 X123.7 Y103.696 E.07023
G1 X123.7 Y104.257 E.01852
G1 X122.757 Y105.2 E.04403
G1 X123.197 Y105.4 E.01596
;WIDTH:0.38292
G1 X123.156 Y105.411 E.0012
G1 X123.137 Y105.34 E.00208
G1 X123.208 Y105.359 E.00208
;WIDTH:0.41146
G1 X123.263 Y105.279 E.00298
;WIDTH:0.439999
G1 X123.319 Y105.2 E.0032
G1 X123.7 Y104.819 E.01779
; stop printing object Part Studio 1 - Part 1.stl id:0 copy 0
;LAYER_CHANGE
;Z:0.6
;HEIGHT:0.2
;BEFORE_LAYER_CHANGE
G92 E0
;0.6


G1 E-3.5 F3600
;WIPE_START
G1 F7200
G1 X123.319 Y105.2 E-.25594
G1 X123.263 Y105.279 E-.046
G1 X123.208 Y105.359 E-.04611
G1 X123.137 Y105.34 E-.03491
G1 X123.156 Y105.411 E-.03491
G1 X123.197 Y105.4 E-.02016
G1 X122.757 Y105.2 E-.22958
G1 X123.7 Y104.257 E-.63346
G1 X123.7 Y103.838 E-.19893
;WIPE_END
G1 Z0.7388888888888889 F9000
;AFTER_LAYER_CHANGE
;0.6
; printing object Part Studio 1 - Part 1.stl id:0 copy 0
G1 X124.006 Y105.506
G1 E5 F2400
;TYPE:Perimeter
G1 X105.994 Y105.506 E.59471
G1 X105.994 Y87.494 E.59471
G1 X124.006 Y87.494 E.59471
G1 X124.006 Y105.446 E.59273
G1 X124.403 Y105.903 F9000
G1 F2400
G1 X105.597 Y105.903 E.62092
G1 X105.597 Y87.097 E.62092
G1 X124.403 Y87.097 E.62092
G1 X124.403 Y105.843 E.61894
G1 X124.79 Y106.29 F9000
;TYPE:External perimeter
;WIDTH:0.419999
G1 F1500
G1 X105.21 Y106.29 E.61392
G1 X105.21 Y86.71 E.61392
G1 X124.79 Y86.71 E.61392
G1 X124.79 Y106.23 E.61203
G1 X124.404 Y106.186 F9000
G1 E-3.5 F3600
;WIPE_START
G1 F7200
G1 X121.632 Y106.24 E-1.5
;WIPE_END
G1 X106.332 Y105.092 F9000
G1 E5 F2400
;TYPE:Solid infill
;WIDTH:0.53634
G1 X106.289 Y105.136 E.00252
G1 X106.304 Y105.196 E.00254
G1 X106.364 Y105.212 E.00255
G1 X106.408 Y105.168 E.00255
G1 X106.392 Y105.108 E.00255
;WIDTH:0.439999
G1 X106.3 Y104.474 E.02115
G1 X107.026 Y105.2 E.0339
G1 X107.587 Y105.2 E.01852
G1 X106.3 Y103.913 E.06009
G1 X106.3 Y103.351 E.01856
G1 X108.149 Y105.2 E.08634
G1 X108.711 Y105.2 E.01856
G1 X106.3 Y102.789 E.11258
G1 X106.3 Y102.228 E.01852
G1 X109.272 Y105.2 E.13877
G1 X109.834 Y105.2 E.01856
G1 X106.3 Y101.666 E.16501
G1 X106.3 Y101.105 E.01852
G1 X110.395 Y105.2 E.19121
G1 X110.957 Y105.2 E.01856
G1 X106.3 Y100.543 E.21745
G1 X106.3 Y99.982 E.01852
G1 X111.518 Y105.2 E.24365
G1 X112.08 Y105.2 E.01856
G1 X106.3 Y99.42 E.26989
G1 X106.3 Y98.859 E.01852
G1 X112.641 Y105.2 E.29608
G1 X113.203 Y105.2 E.01856
G1 X106.3 Y98.297 E.32232
G1 X106.3 Y97.735 E.01856
G1 X113.765 Y105.2 E.34857
G1 X114.326 Y105.2 E.01852
G1 X106.3 Y97.174 E.37476
G1 X106.3 Y96.612 E.01856
G1 X114.888 Y105.2 E.401
G1 X115.449 Y105.2 E.01852
G1 X106.3 Y96.051 E.4272
G1 X106.3 Y95.489 E.01856
G1 X116.011 Y105.2 E.45344
G1 X116.572 Y105.2 E.01852
G1 X106.3 Y94.928 E.47964
G1 X106.3 Y94.366 E.01856
G1 X117.134 Y105.2 E.50588
G1 X117.695 Y105.2 E.01852
G1 X106.3 Y93.805 E.53207
G1 X106.3 Y93.243 E.01856
G1 X118.257 Y105.2 E.55831
G1 X118.819 Y105.2 E.01856
G1 X106.3 Y92.681 E.58456
G1 X106.3 Y92.12 E.01852
G1 X119.38 Y105.2 E.61075
G1 X119.942 Y105.2 E.01856
G1 X106.3 Y91.558 E.63699
G1 X106.3 Y90.997 E.01852
M73 P7 R35
G1 X120.503 Y105.2 E.66319
G1 X121.065 Y105.2 E.01856
G1 X106.3 Y90.435 E.68943
G1 X106.3 Y89.874 E.01852
G1 X121.626 Y105.2 E.71562
G1 X122.188 Y105.2 E.01856
G1 X106.3 Y89.312 E.74187
G1 X106.3 Y88.751 E.01852
G1 X122.749 Y105.2 E.76806
G1 X123.311 Y105.2 E.01856
G1 X106.3 Y88.189 E.7943
G1 X106.191 Y87.661 E.0178
;WIDTH:0.38292
G1 X106.172 Y87.732 E.00208
G1 X106.243 Y87.713 E.00208
G1 X106.232 Y87.672 E.0012
;WIDTH:0.41146
G1 X106.352 Y87.736 E.00417
;WIDTH:0.439999
G1 X106.472 Y87.8 E.00449
